X: 9883
T: Derry Craig Wood
R: reel
M: 4/4
K: Gmajor
GA|:Bd d2 eBdB|eBGB AGED|B,D D2 EDB,D|G2 GA BA A2|
Bd d2 eBdB|eBGB AGED|B, DGE DEGB|1 cAFA G2 GA:|2 cAFA GABc||
|:d2 Bd gd d2|edBd gdBd|e2 ^ce ae e2|afge fded|
Bd d2 gdBd|d2 Bd gdBd|c2 cB cBAB|1 cAFA GABc:|2 cAFA G2 GA||
|:BAGE DB,EB,|DB,DG B2 AB|cBAG FDDE|FEFG A2 GA|
BAGE DB,EB,|DB,DG B2 AB|c2 cd cBAB|cAFA G2 GA:|
GA|:Bd (3ddd eBdB|eBGB AGED|B,D (3DDD EDB,D|~G3 A BA (3AAA|
B~d3 eBdB|eBGB AGED|B, D (3GGE DEGB|1 cAFA G2 GA:|2 cAFA GABc||
|:d2 Bd gd (3ddd|ed (3Bcd gdBd|e2 ^ce ae (3eee|af (3gge fded|
Bd (3ddd gdBd|(3ded Bd gdBd|c2{d}cB cB (3AAB|1 cAFA GABc:|2 cAFA GFGA||
|:BAGE DB,EB,|DB,DG (3BcB AB|cBAG FDDE|~F3 G (3ABA GA|
BAGE DB,EB,|DB,DG BGAB|~c3 d cBAB|cAFA G2 GA:|

